X:89
T:The Night Piece
T:The Shaking of the Sheets
M:6/4
L:1/4
K:D
f2 d a2 f | d2 A d f2 | e g2 f>ed | c d f g2 a :|
|: bga gaf | efd e2 A | ddc ddA | f e2 d3 :|
%
%
